src/media/mmu.svg

<svg xmlns="http://www.w3.org/2000/svg" fill="none" viewBox="48 32 166.67 192"><path d="M214.49 176.092V176.094C198.918 187.014 159.879 198.221 153.337 178.608C141.466 187.545 134.359 211.905 131.335 224C128.311 211.905 121.204 187.548 109.334 178.61C102.789 198.224 63.7552 187.014 48.1847 176.096H48.1807C46.5201 157.145 56.3317 117.714 76.5795 121.856C74.7793 107.11 57.2677 88.777 48.3054 80.1016V80.0976C60.2914 83.5302 84.9182 89.5358 98.5867 83.7249C84.8753 68.2502 114.096 40.0334 131.335 32C148.573 40.0334 177.796 68.2512 164.079 83.7259C177.746 89.5398 202.377 83.5312 214.363 80.0966L214.367 80.0996C205.403 88.769 187.89 107.109 186.09 121.852C206.338 117.711 216.151 157.139 214.49 176.092ZM131.336 40.4927C117.699 47.4598 103.645 59.8993 101.373 75.0176L101.392 75.0186C118.523 69.2396 128.06 92.8955 131.337 106.123C134.611 92.8955 144.147 69.2396 161.283 75.0186L161.297 75.0176C159.024 59.8993 144.969 47.4598 131.336 40.4927ZM207.085 171.752C207.869 156.455 204.127 138.055 192.177 128.532L192.171 128.544C188.606 146.272 163.355 142.707 150.264 138.931C160.082 148.388 175.791 168.479 162.221 180.437L162.219 180.444C176.44 186.04 194.233 180.078 207.085 171.752ZM55.5862 171.747V171.751C68.4415 180.079 86.2344 186.04 100.451 180.445L100.446 180.434C86.8841 168.48 102.589 148.387 112.406 138.929C99.3152 142.706 74.0648 146.272 70.4992 128.542L70.4922 128.531C58.5451 138.052 54.8069 156.457 55.5862 171.747ZM131.336 131.703C117.699 139.391 103.645 153.117 101.374 169.791H101.393C118.524 163.418 128.061 189.523 131.338 204.117C134.612 189.523 144.148 163.418 161.284 169.791H161.298C159.024 153.117 144.969 139.391 131.336 131.703ZM128.132 126.147C128.295 110.486 123.448 91.4488 110.144 81.145L110.131 81.1539C107.086 99.1817 79.721 94.4012 65.4527 89.9442C76.4448 100.071 94.2667 121.393 80.184 133.046L80.181 133.063C95.7526 139.433 114.66 134.113 128.132 126.147ZM134.538 126.147L134.545 126.149C148.012 134.12 166.921 139.434 182.494 133.064L182.489 133.046C168.406 121.396 186.227 100.076 197.221 89.9442C182.954 94.4042 155.586 99.1867 152.543 81.1539L152.536 81.146C139.227 91.4518 134.377 110.489 134.538 126.147Z" fill="black"></path></svg>

<svg xmlns="http://www.w3.org/2000/svg" fill="none" viewBox="48 32 166.67 192">
  <path d="M214.49 176.092v.002c-15.572 10.92-54.611 22.127-61.153 2.514-11.871 8.937-18.978 33.297-22.002 45.392-3.024-12.095-10.131-36.452-22.001-45.39-6.545 19.614-45.579 8.404-61.15-2.514h-.003c-1.66-18.951 8.15-58.382 28.398-54.24-1.8-14.746-19.311-33.079-28.274-41.754v-.004c11.986 3.432 36.613 9.438 50.282 3.627C84.875 68.25 114.096 40.033 131.335 32c17.238 8.033 46.461 36.251 32.744 51.726 13.667 5.814 38.298-.195 50.284-3.63l.004.004c-8.964 8.669-26.477 27.009-28.277 41.752 20.248-4.141 30.061 35.287 28.4 54.24Zm-83.154-135.6c-13.637 6.968-27.691 19.407-29.963 34.526h.019c17.131-5.778 26.668 17.877 29.945 31.105 3.274-13.228 12.81-36.883 29.946-31.104l.014-.001c-2.273-15.119-16.328-27.558-29.961-34.525Zm75.749 131.26c.784-15.297-2.958-33.697-14.908-43.22l-.006.012c-3.565 17.728-28.816 14.163-41.907 10.387 9.818 9.457 25.527 29.548 11.957 41.506l-.002.007c14.221 5.596 32.014-.366 44.866-8.692Zm-151.499-.005v.004c12.856 8.328 30.648 14.289 44.865 8.694l-.005-.011c-13.562-11.954 2.143-32.047 11.96-41.505-13.09 3.777-38.341 7.343-41.907-10.387l-.007-.011c-11.947 9.521-15.685 27.926-14.906 43.216Zm75.75-40.044c-13.637 7.688-27.691 21.414-29.962 38.088h.019c17.131-6.373 26.668 19.732 29.945 34.326 3.274-14.594 12.81-40.699 29.946-34.326h.014c-2.274-16.674-16.329-30.4-29.962-38.088Zm-3.204-5.556c.163-15.661-4.684-34.698-17.988-45.002l-.013.009c-3.045 18.028-30.41 13.247-44.678 8.79 10.992 10.127 28.814 31.449 14.731 43.102l-.003.017c15.572 6.37 34.479 1.05 47.951-6.916Zm6.406 0 .007.002c13.467 7.971 32.376 13.285 47.949 6.915l-.005-.018c-14.083-11.65 3.738-32.97 14.732-43.102-14.267 4.46-41.635 9.243-44.678-8.79l-.007-.008c-13.309 10.306-18.159 29.343-17.998 45.001Z" fill="#000"/>
</svg>
